X:921
T:Reel 921
M:4/4
K:Amix
L:1/8
B,| (3CB,A, B,G, E,A,A,2|B,DDG, B,G,DG,|B,A,B,G,  (3G,A,G, D,G,|B,G,DF EA,DB,|A,2 (3B,A,G, A,B,CA,|B,G, (3E,E,G, DG,B,G,|A,B,CD E2FG|GEDB, CA,A,|G|ABAG A2BA|GABc dcAB|GFGB G2GA|Bcdc BGAG|EAAG A2E2|GABc dBcd| (3edc dB cABG|AGED EA,A,|
